X:43
T:Incomparables
R:
C:Anon.
S:http://members.tripod.com/~Braumeister
Z: Eric Forgeot - http://anamnese.online.fr
M:C
L:1/4
Q:1/2=120
K:G
%%staves (1 2)
V:1
e |: e c d e | c B/c/ A e | e c d e |1 c2 A e :|2 c2 A B |:
     B G A B | c B/c/ A B | B G A B | c2 A B |
     B G A B | c B/c/ A B | B G A B | c2 A e |
     e c d e | c B/c/ A e | e c d e | c2 A e |
     e c d e | c B/c/ A e | e c d e | c2 A ||
V:2
z |: A4 | [A,4E4] | A4 |1 [A,4E4] :|2 [A,3E3] z |
     [E,4E4] | [A,4E4] |  [E,4E4]  | [A,3E3] z |
     [E,4E4] |  [A,3E3] z | [E,4E4] | [A,4E4] |
     A4 | [A,4E4] | A4 |
     [A,4E4] | A4 | [A,4E4] | A4 | [A,3E3] z ||    


